X: 39340
T: Tam Lin
R: reel
M: 4/4
K: Dminor
|:A,2DA, FA,DA,|B,2DB, FB,DB,|C2EC GCEC|FEDC A,DDC|
A,2DA, FA,DA,|B,2DB, FB,DB,|C2EC GCEC|"1"FAGE FEDC:|"2"FAGE F3A||
|:dA~A2 FADA|dA~A2 FADA|cG~G2 EG~G2|cG~G2 cdec|
dA~A2 FADA|dA~A2 FADA,|~B,3A, B,CDE|"1"FDGE FDDA:|"2"FDGE FDDA||
|:fd~d2 AGFE|DEFG AGAc|ec~c2 ecgc|ec~c2 agfe|fd~d2 Adfa|
fdAG FEDC|B,A,B,C DCDE|"1"FDGE FDDA:|"2"FDGE F2E2|D8||

